!!!OTL: 110. Der König in Thule.
!!!COM: Zelter (Mel.)
!!!ODT: 1812
!!!ARE: Europa, Mitteleuropa, Deutschland
!!!SCT: B0110
!!!TXL: @@DE
!!!YEM: Copyright 1995, estate of Helmut Schaffrath.
**kern	**text
*ICvox	*
*Ivox	*
*M6/4	*
*clefF4	*
*k[]	*
*a:	*
!LO:TX:a:t=Sanft und frei.	!
{4E	Es
=1	=1
2A	war
4A	ein
[4.E	Kö-
8E]	-nig
4E	in
=2	=2
2.F	Thu-
2C}	-le,
{4C	gar
=3	=3
2D	treu
4E	bis
2F	an
4D	das
=4	=4
[2.E	Grab,
4E]	.
4r}	.
{4E	dem
=5	=5
2A	ſter-
4A	-bend
2G	ſei-
4G	-ne
=6	=6
2.C	Buh-
2D}	-le
{8D	ei-
8D	-nen
=7	=7
2E	gold-
4F	-nen
2D	Be-
4E	-cher
=8	=8
[2.AA	gab.
4AA]	.
4r}	.
==	==
!!!AGN: Ballade, Romanze
!!!GTL: Balladen und Romanzen
!!!ONB: ESAC (Essen Associative Code) Database: BOEHME
!!!AMT: compound duple
!!!AIN: vox
!!!EED: Helmut Schaffrath
!!!EEV: 1.0
!!@@COMMENT:"Ballade von Goethe, im Sommer 1774 gedichtet; ſpäter im Fauſt (J. Th. 1. Alt) verwendet,
!!wo ſie Greichen fingt. Nach Ʒelter's Kompoſition für Baß wurde die Ballade viel geſungen.
!!Die älteſte Melodie daʒu war die von Siegmund Freih. v. Seckendorff, in "Volkslieder und andere
!!Lieder 3. Samml. , S. 6 (Deſſau 1782). Das iſt ʒugleich der erſte Druck des Textes."
!!@@END:
!!Text: J. W. v. Goethe
!!!URL-scan: https://archive.org/details/BoehmeVtLieder1895/page/n117/mode/2up
!!!ENC: Anna Maria Matuszewska
!!!EEV: 2024/17/06
*-	*-
